X: 434
T: Boyda Bosun Yoktur
C: (Anonim)
O: Turkey
F: http://compmusic.upf.edu/node/140
N: segah--turku--aksak--boyda_bosun--istanbul
N: makam= segah
N: form= turku
N: usul= aksak = 9/8
M: 9/8
L: 1/16
K: C _1/4B _1/4e ^f 
Q: 1/4=156
%%MIDI tuningsystem comma53
z4 e2f2 g4 gag2 fe | d4e2 =f2f2 e2de d2c2  | \
w:   |   | 
B4 B2B2 B4 g2f2 e2 | 
w:   | 
d3Bdc cBB8z2  | z4 B2c2 d4 d4 e2 | d4e2 =f2f2 e2de d2c2  | 
w:   |  Boy da  bo sun   |  *  yok tur  he *  rif  *  *  a  | 
B4 g2g2 g4 gag2 f2 | f3ed2 e2f8-f2  | \
w:  man   Şa ma ma sın   |  şa *  *  ma ma    | 
z4 B2c2 d4 d4 e2 | d4e2 =f2f2 e2de d2c2  | 
w:  Boy da  bo sun   |  *  yok tur  he *  rif  *  *  a  | 
B4 g2g2 g4 gag2 f2 | f3ed2 e2f8-f2  | \
w:  man   Şa ma ma sın   |  şa *  *  ma ma    | 
z4 e2f2 g4 gag2 fe | 
w:  Ay da  bir  ke  | 
d4e2 =f2f2 e2de d2c2  | B4 B2B2 B4 g2f2 e2 | \
w:  *  re cik  ol *  sun  *  *  a  |  man   Gön der mez sin   | 
d3Bdc cBB4f6  | 
w:  *  *  ha *  ma *  ma  ah    | 
z4 e2f2 g4 gag2 fe | d4e2 =f2f2 e2de d2c2  | \
w:  Ay da  bir  ke  |  *  re cik  ol *  sun  *  *  a  | 
B4 B2B2 B4 g2f2 e2 | 
w:  man   Gön der mez sin   | 
d3Bdc cBB8z2  | z4 e2f2 g4 gag2 fe | \
w:  *  *  ha *  ma *  ma    |  Çe ke mem  kah  | 
d4e2 =f2f2 e2de d2c2  | 
w:  *  rı nı  ser *  hoş  *  *  he  | 
B4 B2B2 B4 g2f2 e2 | d3Bdc cBB8z2  | \
w:  rif   İs te mem  be  |  *  *  ni  *  bı *  rak    | 
z4 e2f2 g4 gag2 fe | 
w:   | 
d4e2 =f2f2 e2de d2c2  | B4 B2B2 B4 g2f2 e2 | \
w:   |   | 
d3Bdc cBB8z2  | 
w:   | 
z4 B2c2 d4 d4 e2 | d4e2 =f2f2 e2de d2c2  | \
w:  Boy da  bo sun   |  *  yok tur  he *  rif  *  *  a  | 
B4 g2g2 g4 gag2 f2 | 
w:  man   Şa ma ma sın   | 
f3ed2 e2f8-f2  | z4 B2c2 d4 d4 e2 | d4e2 =f2f2 e2de d2c2  | 
w:  şa *  *  ma ma    |  Boy da  bo sun   |  *  yok tur  he *  rif  *  *  a  | 
B4 g2g2 g4 gag2 f2 | f3ed2 e2f8-f2  | \
w:  man   Şa ma ma sın   |  şa *  *  ma ma    | 
z4 e2f2 g4 gag2 fe | 
w:  Ay da  bir  ke  | 
d4e2 =f2f2 e2de d2c2  | B4 B2B2 B4 g2f2 e2 | \
w:  *  re cik  ol *  sun  *  *  a  |  man   Gön der mez sin   | 
d3Bdc cBB4f6  | 
w:  *  *  ha *  ma *  ma  ah    | 
z4 e2f2 g4 gag2 fe | d4e2 =f2f2 e2de d2c2  | \
w:  Ay da  bir  ke  |  *  re cik  ol *  sun  *  *  a  | 
B4 B2B2 B4 g2f2 e2 | 
w:  man   Gön der mez sin   | 
d3Bdc cBB8z2  | z4 e2f2 g4 gag2 fe | \
w:  *  *  ha *  ma *  ma    |  Çe ke mem  kah  | 
d4e2 =f2f2 e2de d2c2  | 
w:  *  rı nı  ser *  hoş  *  *  he  | 
B4 B2B2 B4 g2f2 e2 | d3Bdc cBB8z2  | |


